packages/ui/public/icons/calendar.svg

<svg width="21" height="20" viewBox="0 0 21 20" fill="none" xmlns="http://www.w3.org/2000/svg">
<path d="M13.8333 1.66406V4.9974M7.16667 1.66406V4.9974M3 8.33073H18M4.66667 3.33073H16.3333C17.2538 3.33073 18 4.07692 18 4.9974V16.6641C18 17.5845 17.2538 18.3307 16.3333 18.3307H4.66667C3.74619 18.3307 3 17.5845 3 16.6641V4.9974C3 4.07692 3.74619 3.33073 4.66667 3.33073Z" stroke="#E7E7E7" stroke-width="1.67" stroke-linecap="round" stroke-linejoin="round"/>
</svg>

<svg width="21" height="20" fill="none" xmlns="http://www.w3.org/2000/svg"><path d="M13.833 1.664v3.333M7.167 1.664v3.333M3 8.331h15m-13.333-5h11.666c.92 0 1.667.746 1.667 1.666v11.667c0 .92-.746 1.667-1.667 1.667H4.667c-.92 0-1.667-.747-1.667-1.667V4.997c0-.92.746-1.666 1.667-1.666Z" stroke="#E7E7E7" stroke-width="1.67" stroke-linecap="round" stroke-linejoin="round"/></svg>
